graphics/SVG/IsAcademia.svg

<?xml version="1.0" encoding="UTF-8" standalone="no"?>
<!-- Created with Inkscape (http://www.inkscape.org/) -->

<svg
   xmlns:dc="http://purl.org/dc/elements/1.1/"
   xmlns:cc="http://creativecommons.org/ns#"
   xmlns:rdf="http://www.w3.org/1999/02/22-rdf-syntax-ns#"
   xmlns:svg="http://www.w3.org/2000/svg"
   xmlns="http://www.w3.org/2000/svg"
   version="1.1"
   width="100"
   height="100"
   id="svg5387">
  <metadata
     id="metadata5393">
    <rdf:RDF>
      <cc:Work
         rdf:about="">
        <dc:format>image/svg+xml</dc:format>
        <dc:type
           rdf:resource="http://purl.org/dc/dcmitype/StillImage" />
        <dc:title></dc:title>
      </cc:Work>
    </rdf:RDF>
  </metadata>
  <defs
     id="defs5391" />
  <path
     d="M 11,34 C 7,38 7,43 7,50 l -1,0 c -2,0 -2,0 -2,2 0,2 0,3 0,4 0,2 0,2 2,2 l -5,27 3,-1 1,3 3,-2 2,2 1,-3 3,1 -5,-27 c 2,0 2,0 2,-2 0,-1 0,-4 0,-4 0,-2 0,-2 -2,-2 L 8,50 C 8,43 8,38 12,34 M 50,51 100,31 50,12 0,31 M 80,43 50,55 20,43 16,71 c 0,0 12,-7 18,-7 6,0 16,10 16,10 0,0 11,-10 16,-10 6,0 18,7 18,7 z"
     id="rect5410"
     style="fill:#ffffff;fill-opacity:1;stroke:none" />
</svg>

<?xml version="1.0" encoding="UTF-8" standalone="no"?>
<!-- Created with Inkscape (http://www.inkscape.org/) -->

<svg
   xmlns:dc="http://purl.org/dc/elements/1.1/"
   xmlns:cc="http://creativecommons.org/ns#"
   xmlns:rdf="http://www.w3.org/1999/02/22-rdf-syntax-ns#"
   xmlns:svg="http://www.w3.org/2000/svg"
   xmlns="http://www.w3.org/2000/svg"
   xmlns:sodipodi="http://sodipodi.sourceforge.net/DTD/sodipodi-0.dtd"
   xmlns:inkscape="http://www.inkscape.org/namespaces/inkscape"
   id="svg5387"
   version="1.1"
   inkscape:version="0.48.4 r9939"
   width="100"
   height="100"
   sodipodi:docname="IsAcademia.svg">
  <metadata
     id="metadata5393">
    <rdf:RDF>
      <cc:Work
         rdf:about="">
        <dc:format>image/svg+xml</dc:format>
        <dc:type
           rdf:resource="http://purl.org/dc/dcmitype/StillImage" />
      </cc:Work>
    </rdf:RDF>
  </metadata>
  <defs
     id="defs5391" />
  <sodipodi:namedview
     pagecolor="#000000"
     bordercolor="#666666"
     borderopacity="1"
     objecttolerance="10"
     gridtolerance="10000"
     guidetolerance="10"
     inkscape:pageopacity="1"
     inkscape:pageshadow="2"
     inkscape:window-width="1680"
     inkscape:window-height="987"
     id="namedview5389"
     showgrid="true"
     inkscape:zoom="7.7478366"
     inkscape:cx="47.7154"
     inkscape:cy="57.513626"
     inkscape:window-x="1912"
     inkscape:window-y="-8"
     inkscape:window-maximized="1"
     inkscape:current-layer="svg5387"
     fit-margin-top="12"
     fit-margin-left="0"
     fit-margin-right="0"
     fit-margin-bottom="13"
     showborder="true"
     inkscape:showpageshadow="false" />
  <path
     style="fill:#ffffff;fill-opacity:1;stroke:none"
     d="M 11,34 C 7,38 7,43 7,50 l -1,0 c -2,0 -2,0 -2,2 0,2 0,3 0,4 0,2 0,2 2,2 L 1,85 4,84 5,87 8,85 10,87 11,84 14,85 9,58 c 2,0 2,0 2,-2 0,-1 0,-4 0,-4 0,-2 0,-2 -2,-2 L 8,50 C 8,43 8,38 12,34 M 50,51 100,31 50,12 0,31 M 80,43 50,55 20,43 16,71 c 0,0 12,-7 18,-7 6,0 16,10 16,10 0,0 11,-10 16,-10 6,0 18,7 18,7 z"
     id="rect5410"
     inkscape:connector-curvature="0"
     sodipodi:nodetypes="ccssscccccccccssscccccccccczcscc" />
</svg>
